icons/circle/48/opensonic.svg

<svg xmlns="http://www.w3.org/2000/svg" viewBox="0 0 48 48">
  <defs>
    <linearGradient id="a" x1="1" x2="47" gradientUnits="userSpaceOnUse" gradientTransform="rotate(-90 24 24)">
      <stop stop-color="#dfeff7"/>
      <stop offset="1" stop-color="#eff7fb"/>
    </linearGradient>
  </defs>
  <path d="M36.31 5c5.859 4.062 9.688 10.831 9.688 18.5 0 12.426-10.07 22.5-22.5 22.5-7.669 0-14.438-3.828-18.5-9.688a23.24 23.24 0 0 0 3.781 4.969 22.923 22.923 0 0 0 15.469 5.969c12.703 0 23-10.298 23-23a22.92 22.92 0 0 0-5.969-15.469A23.216 23.216 0 0 0 36.31 5zm4.969 3.781A22.911 22.911 0 0 1 47.498 24.5c0 12.703-10.297 23-23 23a22.909 22.909 0 0 1-15.719-6.219C12.939 45.425 18.662 48 24.998 48c12.703 0 23-10.298 23-23 0-6.335-2.575-12.06-6.719-16.219z" opacity=".05"/>
  <path d="M41.28 8.781a22.923 22.923 0 0 1 5.969 15.469c0 12.703-10.297 23-23 23A22.92 22.92 0 0 1 8.78 41.281 22.911 22.911 0 0 0 24.499 47.5c12.703 0 23-10.298 23-23A22.909 22.909 0 0 0 41.28 8.781z" opacity=".1"/>
  <path d="M31.25 2.375C39.865 5.529 46 13.792 46 23.505c0 12.426-10.07 22.5-22.5 22.5-9.708 0-17.971-6.135-21.12-14.75a23 23 0 0 0 44.875-7 23 23 0 0 0-16-21.875z" opacity=".2"/>
  <path d="M24 1c12.703 0 23 10.297 23 23S36.703 47 24 47 1 36.703 1 24 11.297 1 24 1z" fill="url(#a)"/>
  <path d="M40.03 7.531A22.922 22.922 0 0 1 45.999 23c0 12.703-10.297 23-23 23A22.92 22.92 0 0 1 7.53 40.031C11.708 44.322 17.54 47 23.999 47c12.703 0 23-10.298 23-23 0-6.462-2.677-12.291-6.969-16.469z" opacity=".1"/>
  <g opacity=".1">
    <path d="M28.47 14.787a9.673 9.673 0 0 0-2.138.178c-2.175.435-6.883 2.907-9.129 5.705-.247.308-.254.333-.396.518-1.866.114-3.087-.305-3.596.053-.659.463.36 3.094 1.236 4.664a3.555 3.555 0 0 0-.096 1.04c.08 1.342.264 2.477.516 3.468a2.282 1.141 0 0 0-1.656 1.098 2.282 1.141 0 0 0 1.311 1.03c-.018.238.1.467.4.68 1.387.985 2.234 1.533 2.826 1.843 1.633 1.08 3.59 1.079 5.283.725 2.273-.475 4.484-1.224 6.074-2.375.586-.253 1.091-.56 1.486-.924.412-.18.597-.264.947-.416 1.21-.524 2.992-1.38 4.473-2.102 1.48-.723 2.988-.654 2.988-.654s-2.023-2.221-3.385-2.697c-.962-.336-3.057 0-3.057 0s1.666-1.37 2.613-1.871c1.13-.597 3.6-1.32 3.6-1.32s-1.919-1.582-3.209-1.984c-2.235-.697-3.144-.336-3.465-.105.224-.217 1.253-1.202 1.975-1.602 1.187-.657 3.857-1.295 3.857-1.295s-4.51-3.535-9.46-3.654z" fill-rule="evenodd"/>
  </g>
  <g>
    <g transform="matrix(3.29021 0 0 3.29021 2.159 1.91)" fill="#2f2fb7">
      <path d="M3.922 6.091c.489-.783-.359.186.347-.694.682-.851 2.113-1.602 2.774-1.734 1.734-.347 3.525 1.056 3.525 1.056s-.812.194-1.172.394c-.244.135-.647.53-.647.53s.187-.296 1.099-.011c.392.122.975.603.975.603s-.75.22-1.094.401c-.288.152-.795.569-.795.569s.637-.102.929 0c.414.145 1.029.82 1.029.82s-.458-.021-.908.199-.992.479-1.359.639c-.585.254-1.583.696-1.583.696S3.798 7.74 3.921 6.091z" fill-rule="evenodd"/>
      <path d="M8.604 7.999c0 1.149-1.251 1.719-2.564 1.994-1.065.223-2.477 0-2.638-2.687-.069-1.147 1.434-1.387 2.774-1.387 1.252 0 2.299.817 2.417 1.885"/>
      <path d="M8.604 8.345c.098 1.147-2.112 1.276-3.183 1.337-.854.049-.31.619-1.845-.47-.703-.499 1.748-1.265 2.774-1.387.766-.091 2.188-.248 2.254.52"/>
      <ellipse ry="1" rx="2" cy="24" cx="16.5" transform="translate(-1.973 .37) scale(.34678)"/>
      <path d="M5.309 6.091c.275.392-.676 1.08-.911 1.246-.235.165-.56.261-.835-.131-.275-.392-.743-1.47-.508-1.635.22-.154.867.173 1.907-.173"/>
    </g>
    <path d="M14.9 29.117s-.376-.436-.436-.708c-.276-1.248-.808-3.508.436-3.81 1.19-.287 2.037 3.055 2.037 3.055s.57-2.654 1.432-3.632c.666-.758 1.626-1.46 2.643-1.46 2.037 0 2.01 4.075.989 6.112-1.017 2.038-5.064 0-5.064 0z" fill="#f9f9f9"/>
    <g transform="matrix(3.5433 0 0 3.5433 0 .002)">
      <ellipse ry="1" rx=".5" cy="22" cx="-5.5" transform="matrix(.57497 0 0 .57497 8.945 -5.113)" fill="#4d4d4d"/>
      <path d="M5.761 7.085c.149-.054.192.132.192.224s.031.427-.031.305c-.061-.122-.031-.275-.153-.275s-.158-.201-.009-.254z" fill="#e6e6e6"/>
    </g>
    <g transform="matrix(3.5433 0 0 3.5433 0 .002)">
      <ellipse ry="1" rx=".5" cy="22" cx="-5.5" transform="matrix(.43123 0 0 .43123 6.793 -1.775)" fill="#4d4d4d"/>
      <path d="M4.405 7.376c.113-.041.146.1.146.17 0 .069.023.324-.023.232-.046-.093-.023-.208-.116-.208s-.12-.152-.007-.193z" fill="#e6e6e6"/>
    </g>
  </g>
</svg>

<svg xmlns="http://www.w3.org/2000/svg" viewBox="0 0 48 48">
 <defs>
  <linearGradient id="linearGradient3764" x1="1" x2="47" gradientUnits="userSpaceOnUse" gradientTransform="matrix(0,-1,1,0,-1.5e-6,47.999998)">
   <stop style="stop-color:#dfeff7;stop-opacity:1"/>
   <stop offset="1" style="stop-color:#eff7fb;stop-opacity:1"/>
  </linearGradient>
 </defs>
 <g>
  <path d="m 36.31 5 c 5.859 4.062 9.688 10.831 9.688 18.5 c 0 12.426 -10.07 22.5 -22.5 22.5 c -7.669 0 -14.438 -3.828 -18.5 -9.688 c 1.037 1.822 2.306 3.499 3.781 4.969 c 4.085 3.712 9.514 5.969 15.469 5.969 c 12.703 0 23 -10.298 23 -23 c 0 -5.954 -2.256 -11.384 -5.969 -15.469 c -1.469 -1.475 -3.147 -2.744 -4.969 -3.781 z m 4.969 3.781 c 3.854 4.113 6.219 9.637 6.219 15.719 c 0 12.703 -10.297 23 -23 23 c -6.081 0 -11.606 -2.364 -15.719 -6.219 c 4.16 4.144 9.883 6.719 16.219 6.719 c 12.703 0 23 -10.298 23 -23 c 0 -6.335 -2.575 -12.06 -6.719 -16.219 z" style="opacity:0.05"/>
  <path d="m 41.28 8.781 c 3.712 4.085 5.969 9.514 5.969 15.469 c 0 12.703 -10.297 23 -23 23 c -5.954 0 -11.384 -2.256 -15.469 -5.969 c 4.113 3.854 9.637 6.219 15.719 6.219 c 12.703 0 23 -10.298 23 -23 c 0 -6.081 -2.364 -11.606 -6.219 -15.719 z" style="opacity:0.1"/>
  <path d="m 31.25 2.375 c 8.615 3.154 14.75 11.417 14.75 21.13 c 0 12.426 -10.07 22.5 -22.5 22.5 c -9.708 0 -17.971 -6.135 -21.12 -14.75 a 23 23 0 0 0 44.875 -7 a 23 23 0 0 0 -16 -21.875 z" style="opacity:0.2"/>
 </g>
 <g>
  <path d="m 24 1 c 12.703 0 23 10.297 23 23 c 0 12.703 -10.297 23 -23 23 -12.703 0 -23 -10.297 -23 -23 0 -12.703 10.297 -23 23 -23 z" style="fill:url(#linearGradient3764);fill-opacity:1"/>
 </g>
 <g>
  <path d="m 40.03 7.531 c 3.712 4.084 5.969 9.514 5.969 15.469 0 12.703 -10.297 23 -23 23 c -5.954 0 -11.384 -2.256 -15.469 -5.969 4.178 4.291 10.01 6.969 16.469 6.969 c 12.703 0 23 -10.298 23 -23 0 -6.462 -2.677 -12.291 -6.969 -16.469 z" style="opacity:0.1"/>
 </g>
 <g transform="matrix(3.543307,0,0,3.543307,1.4797254,1.3814075)" style="fill:#000;opacity:0.1">
  <g transform="matrix(0.92857144,0,0,0.92857144,0.473884,0.4313671)">
   <path transform="matrix(0.30393163,0,0,0.30393163,-0.95998646,-0.88383881)" d="m 28.469 14.785 c -0.707 -0.017 -1.424 0.035 -2.137 0.178 -2.175 0.435 -6.883 2.907 -9.129 5.705 -0.247 0.308 -0.254 0.333 -0.396 0.518 -1.866 0.114 -3.087 -0.305 -3.596 0.053 -0.659 0.463 0.36 3.094 1.236 4.664 -0.076 0.321 -0.118 0.662 -0.096 1.041 0.08 1.341 0.264 2.476 0.516 3.467 a 2.282 1.141 0 0 0 -1.656 1.098 2.282 1.141 0 0 0 1.311 1.031 c -0.018 0.237 0.099 0.466 0.4 0.68 1.387 0.984 2.234 1.532 2.826 1.842 1.633 1.08 3.59 1.079 5.283 0.725 2.273 -0.475 4.484 -1.224 6.074 -2.375 0.586 -0.253 1.091 -0.56 1.486 -0.924 0.412 -0.18 0.597 -0.264 0.947 -0.416 1.209 -0.524 2.992 -1.379 4.473 -2.102 1.48 -0.723 2.988 -0.654 2.988 -0.654 0 0 -2.023 -2.221 -3.385 -2.697 -0.962 -0.336 -3.057 0 -3.057 0 0 0 1.666 -1.37 2.613 -1.871 1.129 -0.597 3.6 -1.32 3.6 -1.32 0 0 -1.919 -1.582 -3.209 -1.984 -2.235 -0.697 -3.144 -0.336 -3.465 -0.105 0.224 -0.217 1.253 -1.202 1.975 -1.602 1.187 -0.657 3.857 -1.295 3.857 -1.295 0 0 -4.511 -3.535 -9.461 -3.654 z" style="stroke:none;fill-rule:evenodd"/>
  </g>
 </g>
 <g transform="matrix(3.543307,0,0,3.543307,2.8138905e-4,0.00185446)">
  <g transform="matrix(0.92857144,0,0,0.92857144,0.60919378,0.53848525)" style="fill:#2f2fb7;fill-opacity:1">
   <path d="M 3.922,6.091 C 4.411,5.308 3.563,6.277 4.269,5.397 4.951,4.546 6.382,3.795 7.043,3.663 c 1.734,-0.347 3.525,1.056 3.525,1.056 0,0 -0.812,0.194 -1.172,0.394 -0.244,0.135 -0.647,0.53 -0.647,0.53 0,0 0.187,-0.296 1.099,-0.011 0.392,0.122 0.975,0.603 0.975,0.603 0,0 -0.75,0.22 -1.094,0.401 -0.288,0.152 -0.795,0.569 -0.795,0.569 0,0 0.637,-0.102 0.929,0 0.414,0.145 1.029,0.82 1.029,0.82 0,0 -0.458,-0.021 -0.908,0.199 C 9.534,8.444 8.992,8.703 8.625,8.863 8.04,9.117 7.042,9.559 7.042,9.559 c 0,0 -3.244,-1.819 -3.121,-3.468 z" style="stroke:none;fill-rule:evenodd"/>
   <path d="m 8.604 7.999 c 0 1.149 -1.251 1.719 -2.564 1.994 -1.065 0.223 -2.477 0 -2.638 -2.687 -0.069 -1.147 1.434 -1.387 2.774 -1.387 1.252 0 2.299 0.817 2.417 1.885" style="stroke:none"/>
   <path d="M 8.604,8.345 C 8.702,9.492 6.492,9.621 5.421,9.682 4.567,9.731 5.111,10.301 3.576,9.212 2.873,8.713 5.324,7.947 6.35,7.825 7.116,7.734 8.538,7.577 8.604,8.345" style="stroke:none"/>
   <ellipse ry="1" rx="2" cy="24" cx="16.5" transform="matrix(0.34678039,0,0,0.34678039,-1.97318,0.36952861)" style="stroke:none"/>
   <path d="M 5.309,6.091 C 5.584,6.483 4.633,7.171 4.398,7.337 4.163,7.502 3.838,7.598 3.563,7.206 3.288,6.814 2.82,5.736 3.055,5.571 3.275,5.417 3.922,5.744 4.962,5.398" style="stroke:none"/>
  </g>
  <g>
   <path d="m 4.205,8.217 c 0,0 -0.106,-0.123 -0.123,-0.2 C 4.004,7.665 3.854,7.027 4.205,6.942 4.541,6.861 4.78,7.804 4.78,7.804 c 0,0 0.161,-0.749 0.404,-1.025 0.188,-0.214 0.459,-0.412 0.746,-0.412 0.575,0 0.567,1.15 0.279,1.725 -0.287,0.575 -1.429,0 -1.429,0 z" style="fill:#f9f9f9;stroke:none"/>
   <g>
    <ellipse ry="1" rx="0.5" cy="22" cx="-5.5" transform="matrix(0.57496862,0,0,0.57496862,8.9446149,-5.1129017)" style="fill:#4d4d4d;fill-opacity:1;stroke:none"/>
    <path d="M 5.761,7.085 C 5.91,7.031 5.953,7.217 5.953,7.309 5.953,7.401 5.984,7.736 5.922,7.614 5.861,7.492 5.891,7.339 5.769,7.339 5.647,7.339 5.611,7.138 5.76,7.085 Z" style="fill:#e6e6e6;stroke:none"/>
   </g>
   <g>
    <ellipse ry="1" rx="0.5" cy="22" cx="-5.5" transform="matrix(0.43122647,0,0,0.43122647,6.7926881,-1.7751646)" style="fill:#4d4d4d;fill-opacity:1;stroke:none"/>
    <path d="m 4.405,7.376 c 0.113,-0.041 0.146,0.1 0.146,0.17 0,0.069 0.023,0.324 -0.023,0.232 C 4.482,7.685 4.505,7.57 4.412,7.57 4.319,7.57 4.292,7.418 4.405,7.377 Z" style="fill:#e6e6e6;stroke:none"/>
   </g>
  </g>
 </g>
</svg>
